Yaru++/mimetypes/48/text-x-copying.svg

<svg height="48" viewBox="0 0 12.699375 12.699375" width="48" xmlns="http://www.w3.org/2000/svg" xmlns:xlink="http://www.w3.org/1999/xlink"><linearGradient id="a" gradientUnits="userSpaceOnUse" x1="6.350072" x2="6.350072" y1=".396856" y2="12.03795"><stop offset="0" stop-color="#fff"/><stop offset=".125" stop-color="#fff" stop-opacity=".098039"/><stop offset=".92500001" stop-color="#fff" stop-opacity=".098039"/><stop offset="1" stop-color="#fff" stop-opacity=".498039"/></linearGradient><linearGradient id="b" gradientTransform="matrix(0 -.02997086 .02997 0 -3.039509 13.625372)" gradientUnits="userSpaceOnUse" x1="459.03448" x2="35.310345" y1="419.23337" y2="207.36522"><stop offset="0" stop-color="#f2f2f2"/><stop offset="1" stop-color="#f9f9f9"/></linearGradient><path d="m4.1621981.39685664c-.5881133-.0089583-1.0513178.0135407-1.4323995.0775109-.3810845.0639689-.6929229.1839555-.9213476.4118407-.2284221.22788556-.3489841.53958346-.4123566.92082876-.0633726.3812456-.0757439.8453924-.07286 1.4349839v3.2399529 3.241503c-.00286.5886852.00955 1.0525972.07286 1.4334332.063372.381246.1839345.692944.4123566.920829.2284247.227885.5402631.347873.9213476.411841.3810844.06397.8442174.07751 1.4323995.07751h4.3757443c.5881821 0 1.0510744-.01352 1.4313677-.07751.3802939-.064.6911799-.18439.9187609-.412357.227583-.227967.347433-.539443.411324-.920313.06389-.380868.07751-.844073.07751-1.4334332v-3.241503-3.1748437l-2.8389626-2.84361416z" opacity=".1"/><path d="m4.1623595.39685664c-2.334616 0-2.5858176.2397933-2.5743749 2.57913196v3.2414152 3.241415c-.011456 2.3393382.2397589 2.5791312 2.5743749 2.5791312h4.3757787c2.3346168 0 2.5743758-.239767 2.5743758-2.5791312v-3.241415l-.000178-3.1748441-2.6457032-2.64570306z" fill="none" opacity=".2" stroke="#000" stroke-width=".529141"/><path d="m4.1623595.39685664c-2.334616 0-2.5858176.2397933-2.5743749 2.57913196v3.2414152 3.241415c-.011456 2.3393382.2397589 2.5791312 2.5743749 2.5791312h4.3757787c2.3346168 0 2.5743758-.239767 2.5743758-2.5791312v-3.241415l-.000178-3.1748441-2.6457032-2.64570306z" fill="url(#b)"/><path d="m6.3939572 9.3362598q-.3425127 0-.6411174-.122954-.2898156-.122954-.5093772-.351297-.2195616-.228343-.3425127-.562075-.1229564-.342514-.1229564-.772852 0-.421556.1317348-.746506.1405186-.333731.3688613-.562074.2283427-.237126.5269473-.351297.2985994-.122954.6235526-.122954.4303395 0 .6938118.122954.2722561.114171.3688613.184431l-.1668671.395209q-.1317349-.07026-.3425128-.149302-.2019968-.087824-.5532932-.087824-.483034 0-.8079819.342515-.3161668.342514-.3161668.974848 0 .649899.3073831 1.001195.3161668.342515.8518952.342515.3776451 0 .5884229-.07904.219559-.08782.3161668-.149302l.1492997.421557q-.11417.07026-.4039909.175648-.2898183.09661-.7201604.09661zm2.9333281-1.800396q0 .755288-.2459075 1.34371-.2459076.588422-.6586822 1.001196-.403991.4039902-.9485005.6235512-.5357284.210778-1.1241486.210778-.5884229 0-1.1329324-.210778-.5357285-.219561-.9485005-.6235512-.403991-.412774-.6498985-1.001196-.2459075-.588422-.2459075-1.34371 0-.746505.2459075-1.334927.2459075-.597205.6498985-1.001196.412772-.4039911.9485005-.6147689.5445095-.2195606 1.1329324-.2195606.5884202 0 1.1241486.2195606.5445095.2107778.9485005.6147689.4127773.403991.6586848 1.001196.2459075.588422.2459049 1.334927zm-.5181636 0q0-.605987-.1844293-1.106584-.1844294-.500598-.5093825-.851895-.324948-.360079-.7816307-.5532921-.4479043-.1932133-.9836327-.1932133-.5357285 0-.9924139.1932133-.4479043.1932131-.7728495.5532921-.3249506.351297-.5093825.851895-.1844294.500597-.1844294 1.106584 0 .605987.1844294 1.106585.1844319.500597.5093825.860677.3249452.351296.7728495.5532922.4566854.193213.9924139.193213.5357284 0 .9836327-.193213.4566827-.2019962.7816307-.5532922.3249531-.36008.5093825-.860677.1844293-.500598.1844293-1.106585z" fill="#999"/><path d="m1.5878047 6.2174038v3.241503c-.011456 2.3393372.2397774 2.5790432 2.5743934 2.5790432h4.3757443c2.3346166 0 2.5743936-.239679 2.5743936-2.5790432v-3.241503z" fill="#fff" opacity=".2"/><path d="m6.3500703.39685664v11.64109336h2.1878721c2.3346166 0 2.5743936-.239679 2.5743936-2.5790432v-3.241503-3.1748441l-2.6457032-2.64570306z" fill="#fff" opacity=".1"/><path d="m4.1621981.39685664c-2.334616 0-2.5858361.2397052-2.5743934 2.57904386v3.2415033 3.241503c-.011456 2.3393372.2397774 2.5790432 2.5743934 2.5790432h4.3757443c2.3346166 0 2.5743936-.239679 2.5743936-2.5790432v-3.241503-3.1748441h-.26457v3.1748441 3.241503c0 .5803222-.01624 1.0240712-.07028 1.3461032-.05402.322035-.13987.509123-.264054.633524-.124184.124388-.310702.2105-.631972.264571-.321273.05406-.7643965.07028-1.3435224.07028h-4.3757395c-.5791259 0-1.0227997-.01619-1.3450728-.07028-.3222705-.054102-.5102953-.14009-.6350719-.264571-.124774-.124488-.2105874-.311351-.2640518-.633005-.053467-.321654-.0684681-.765511-.0656266-1.3455892v-.000529-3.242007-3.2420201-.0005291c-.00283-.5800778.01217-1.0239334.065627-1.3455882.053467-.3216548.1392778-.5085248.2640518-.63300506.124774-.1244803.31332-.2104736.6355904-.2645703.3222705-.0540718.7654284-.0702641 1.3445543-.0702641h4.3044347v-.2645703z" fill="url(#a)" opacity=".4"/><path d="m11.112336 3.3071301v-.2645704l-2.6457032-2.64570306h-.2645703v1.11359066.042668.022917c0 1.5059289.201592 1.7381397 1.7109762 1.7307589z" opacity=".2"/><path d="m11.112336 3.0422211-2.6457032-2.64536496v.98127586.042668.022917c0 1.5059289.069402 1.6058846 1.5787862 1.5985039z" fill="#faf8f6"/></svg>

<?xml version="1.0" encoding="UTF-8" standalone="no"?>
<svg
   xmlns:dc="http://purl.org/dc/elements/1.1/"
   xmlns:cc="http://creativecommons.org/ns#"
   xmlns:rdf="http://www.w3.org/1999/02/22-rdf-syntax-ns#"
   xmlns:svg="http://www.w3.org/2000/svg"
   xmlns="http://www.w3.org/2000/svg"
   xmlns:xlink="http://www.w3.org/1999/xlink"
   xmlns:sodipodi="http://sodipodi.sourceforge.net/DTD/sodipodi-0.dtd"
   xmlns:inkscape="http://www.inkscape.org/namespaces/inkscape"
   height="48"
   viewBox="0 0 12.699375 12.699375"
   width="48"
   version="1.1"
   id="svg33"
   sodipodi:docname="text-x-copying.svg"
   inkscape:version="0.92.5 (2060ec1f9f, 2020-04-08)">
  <metadata
     id="metadata39">
    <rdf:RDF>
      <cc:Work
         rdf:about="">
        <dc:format>image/svg+xml</dc:format>
        <dc:type
           rdf:resource="http://purl.org/dc/dcmitype/StillImage" />
      </cc:Work>
    </rdf:RDF>
  </metadata>
  <defs
     id="defs37">
    <linearGradient
       gradientTransform="matrix(0.26457031,0,0,0.26457031,-84.662115,-16.006503)"
       inkscape:collect="always"
       xlink:href="#linearGradient927"
       id="linearGradient1004"
       x1="344"
       y1="62"
       x2="344"
       y2="106"
       gradientUnits="userSpaceOnUse" />
    <linearGradient
       inkscape:collect="always"
       id="linearGradient927">
      <stop
         style="stop-color:#ffffff;stop-opacity:1;"
         offset="0"
         id="stop923" />
      <stop
         id="stop933"
         offset="0.125"
         style="stop-color:#ffffff;stop-opacity:0.09803922" />
      <stop
         id="stop931"
         offset="0.92500001"
         style="stop-color:#ffffff;stop-opacity:0.09803922" />
      <stop
         style="stop-color:#ffffff;stop-opacity:0.49803922"
         offset="1"
         id="stop925" />
    </linearGradient>
    <linearGradient
       inkscape:collect="always"
       xlink:href="#linearGradient4338"
       id="linearGradient1024"
       gradientUnits="userSpaceOnUse"
       gradientTransform="matrix(0,-0.02997086,0.02997,0,-3.0395089,13.625372)"
       x1="459.03448"
       y1="419.23337"
       x2="35.310345"
       y2="207.36522" />
    <linearGradient
       inkscape:collect="always"
       id="linearGradient4338">
      <stop
         style="stop-color:#f2f2f2;stop-opacity:1"
         offset="0"
         id="stop4340" />
      <stop
         style="stop-color:#f9f9f9;stop-opacity:1"
         offset="1"
         id="stop4342" />
    </linearGradient>
  </defs>
  <sodipodi:namedview
     pagecolor="#ffffff"
     bordercolor="#666666"
     borderopacity="1"
     objecttolerance="10"
     gridtolerance="10"
     guidetolerance="10"
     inkscape:pageopacity="0"
     inkscape:pageshadow="2"
     inkscape:window-width="834"
     inkscape:window-height="480"
     id="namedview35"
     showgrid="false"
     inkscape:zoom="4.9166667"
     inkscape:cx="24"
     inkscape:cy="24"
     inkscape:window-x="0"
     inkscape:window-y="28"
     inkscape:window-maximized="0"
     inkscape:current-layer="svg33" />
  <linearGradient
     id="a"
     gradientUnits="userSpaceOnUse"
     x1="344"
     x2="344"
     y1="62"
     y2="106">
    <stop
       offset="0"
       stop-color="#fff"
       id="stop2" />
    <stop
       offset=".125"
       stop-color="#fff"
       stop-opacity=".098039"
       id="stop4" />
    <stop
       offset=".92500001"
       stop-color="#fff"
       stop-opacity=".098039"
       id="stop6" />
    <stop
       offset="1"
       stop-color="#fff"
       stop-opacity=".498039"
       id="stop8" />
  </linearGradient>
  <clipPath
     id="b">
    <path
       d="m335.73108 62c-8.82418 0-9.77365.90635-9.7304 9.74838v12.25162 12.25162c-.0433 8.84203.90622 9.74838 9.7304 9.74838h16.53919c8.82418 0 9.7304-.90625 9.7304-9.74838v-12.25162-12.25162c0-8.84213-.90622-9.74838-9.7304-9.74838z"
       id="path11" />
  </clipPath>
  <linearGradient
     id="c"
     gradientTransform="matrix(0 -.02997086 .02997 0 -3.039509 13.625372)"
     gradientUnits="userSpaceOnUse"
     x1="459.03448"
     x2="35.310345"
     y1="419.23337"
     y2="207.36522">
    <stop
       offset="0"
       stop-color="#f2f2f2"
       id="stop14" />
    <stop
       offset="1"
       stop-color="#f9f9f9"
       id="stop16" />
  </linearGradient>
  <path
     style="color:#000000;font-style:normal;font-variant:normal;font-weight:normal;font-stretch:normal;font-size:medium;line-height:normal;font-family:sans-serif;font-variant-ligatures:normal;font-variant-position:normal;font-variant-caps:normal;font-variant-numeric:normal;font-variant-alternates:normal;font-feature-settings:normal;text-indent:0;text-align:start;text-decoration:none;text-decoration-line:none;text-decoration-style:solid;text-decoration-color:#000000;letter-spacing:normal;word-spacing:normal;text-transform:none;writing-mode:lr-tb;direction:ltr;text-orientation:mixed;dominant-baseline:auto;baseline-shift:baseline;text-anchor:start;white-space:normal;shape-padding:0;clip-rule:nonzero;display:inline;overflow:visible;visibility:visible;opacity:0.1;isolation:auto;mix-blend-mode:normal;color-interpolation:sRGB;color-interpolation-filters:linearRGB;solid-color:#000000;solid-opacity:1;vector-effect:none;fill:#000000;fill-opacity:1;fill-rule:nonzero;stroke:none;stroke-width:0.52914065;stroke-linecap:butt;stroke-linejoin:miter;stroke-miterlimit:4;stroke-dasharray:none;stroke-dashoffset:0;stroke-opacity:1;marker:none;color-rendering:auto;image-rendering:auto;shape-rendering:auto;text-rendering:auto;enable-background:accumulate"
     d="M 4.1621981,0.39685664 C 3.5740848,0.38789834 3.1108803,0.41039734 2.7297986,0.47436754 2.3487141,0.53833644 2.0368757,0.65832304 1.808451,0.88620824 1.5800289,1.1140938 1.4594669,1.4257917 1.3960944,1.807037 1.3327218,2.1882826 1.3203505,2.6524294 1.3232344,3.2420209 v 3.2399529 3.241503 c -0.00286,0.5886852 0.00955,1.0525972 0.07286,1.4334332 0.063372,0.381246 0.1839345,0.692944 0.4123566,0.920829 0.2284247,0.227885 0.5402631,0.347873 0.9213476,0.411841 0.3810844,0.06397 0.8442174,0.07751 1.4323995,0.07751 h 4.3757443 c 0.5881821,0 1.0510744,-0.01352 1.4313677,-0.07751 0.3802939,-0.064 0.6911799,-0.18439 0.9187609,-0.412357 0.227583,-0.227967 0.347433,-0.539443 0.411324,-0.920313 0.06389,-0.380868 0.07751,-0.844073 0.07751,-1.4334332 V 6.4819738 3.3071301 L 8.5379424,0.46351594 Z"
     id="path1020"
     inkscape:connector-curvature="0"
     sodipodi:nodetypes="sccsccccccsscccscccs" />
  <path
     style="color:#000000;display:inline;overflow:visible;visibility:visible;opacity:0.2;fill:none;fill-opacity:1;fill-rule:nonzero;stroke:#000000;stroke-width:0.52914065;stroke-miterlimit:4;stroke-dasharray:none;stroke-opacity:1;marker:none;enable-background:accumulate"
     d="m 4.1623595,0.39685664 c -2.334616,0 -2.5858176,0.2397933 -2.5743749,2.57913196 v 3.2414152 3.241415 C 1.5765286,11.798157 1.8277435,12.03795 4.1623595,12.03795 h 4.3757787 c 2.3346168,0 2.5743758,-0.239767 2.5743758,-2.5791312 V 6.2174038 L 11.112336,3.0425597 8.4666328,0.39685664 Z"
     id="path958"
     inkscape:connector-curvature="0"
     sodipodi:nodetypes="scccssscccs" />
  <path
     style="color:#000000;display:inline;overflow:visible;visibility:visible;fill:url(#linearGradient1024);fill-opacity:1;fill-rule:nonzero;stroke:none;stroke-width:0.26457033;marker:none;enable-background:accumulate"
     d="m 4.1623595,0.39685664 c -2.334616,0 -2.5858176,0.2397933 -2.5743749,2.57913196 v 3.2414152 3.241415 C 1.5765286,11.798157 1.8277435,12.03795 4.1623595,12.03795 h 4.3757787 c 2.3346168,0 2.5743758,-0.239767 2.5743758,-2.5791312 V 6.2174038 L 11.112336,3.0425597 8.4666328,0.39685664 Z"
     id="path964"
     inkscape:connector-curvature="0"
     sodipodi:nodetypes="scccssscccs" />
  <path
     inkscape:connector-curvature="0"
     id="path981"
     style="font-style:normal;font-variant:normal;font-weight:300;font-stretch:normal;font-size:medium;line-height:1000%;font-family:Ubuntu;-inkscape-font-specification:'Ubuntu Light';text-align:center;letter-spacing:0px;word-spacing:0px;text-anchor:middle;display:inline;fill:#999999;fill-opacity:1;stroke:none;stroke-width:0.06841032px;stroke-linecap:butt;stroke-linejoin:miter;stroke-opacity:1;enable-background:new"
     d="m 6.3939572,9.3362598 q -0.3425127,0 -0.6411174,-0.122954 Q 5.4630242,9.0903518 5.2434626,8.8620088 5.023901,8.6336658 4.9009499,8.2999338 4.7779935,7.9574198 4.7779935,7.5270818 q 0,-0.421556 0.1317348,-0.746506 0.1405186,-0.333731 0.3688613,-0.562074 0.2283427,-0.237126 0.5269473,-0.351297 0.2985994,-0.122954 0.6235526,-0.122954 0.4303395,0 0.6938118,0.122954 0.2722561,0.114171 0.3688613,0.184431 L 7.3248955,6.4468448 Q 7.1931606,6.3765848 6.9823827,6.2975428 6.7803859,6.2097188 6.4290895,6.2097188 q -0.483034,0 -0.8079819,0.342515 -0.3161668,0.342514 -0.3161668,0.974848 0,0.649899 0.3073831,1.001195 0.3161668,0.342515 0.8518952,0.342515 0.3776451,0 0.5884229,-0.07904 0.219559,-0.08782 0.3161668,-0.149302 l 0.1492997,0.421557 q -0.11417,0.07026 -0.4039909,0.175648 -0.2898183,0.09661 -0.7201604,0.09661 z m 2.9333281,-1.800396 q 0,0.755288 -0.2459075,1.34371 -0.2459076,0.588422 -0.6586822,1.001196 -0.403991,0.4039902 -0.9485005,0.6235512 -0.5357284,0.210778 -1.1241486,0.210778 -0.5884229,0 -1.1329324,-0.210778 Q 4.6813856,10.28476 4.2686136,9.8807698 3.8646226,9.4679958 3.6187151,8.8795738 3.3728076,8.2911518 3.3728076,7.5358638 q 0,-0.746505 0.2459075,-1.334927 0.2459075,-0.597205 0.6498985,-1.001196 0.412772,-0.4039911 0.9485005,-0.6147689 0.5445095,-0.2195606 1.1329324,-0.2195606 0.5884202,0 1.1241486,0.2195606 0.5445095,0.2107778 0.9485005,0.6147689 0.4127773,0.403991 0.6586848,1.001196 0.2459075,0.588422 0.2459049,1.334927 z m -0.5181636,0 q 0,-0.605987 -0.1844293,-1.106584 Q 8.440263,5.9286818 8.1153099,5.5773848 7.7903619,5.2173058 7.3336792,5.0240927 6.8857749,4.8308794 6.3500465,4.8308794 q -0.5357285,0 -0.9924139,0.1932133 -0.4479043,0.1932131 -0.7728495,0.5532921 -0.3249506,0.351297 -0.5093825,0.851895 -0.1844294,0.500597 -0.1844294,1.106584 0,0.605987 0.1844294,1.106585 0.1844319,0.500597 0.5093825,0.860677 0.3249452,0.351296 0.7728495,0.5532922 0.4566854,0.193213 0.9924139,0.193213 0.5357284,0 0.9836327,-0.193213 0.4566827,-0.2019962 0.7816307,-0.5532922 0.3249531,-0.36008 0.5093825,-0.860677 0.1844293,-0.500598 0.1844293,-1.106585 z" />
  <path
     style="color:#000000;display:inline;overflow:visible;visibility:visible;opacity:0.2;fill:#ffffff;fill-opacity:1;fill-rule:nonzero;stroke:none;stroke-width:0.26457033;marker:none;enable-background:accumulate"
     d="m 1.5878047,6.2174038 v 3.241503 C 1.5763487,11.798244 1.8275821,12.03795 4.1621981,12.03795 h 4.3757443 c 2.3346166,0 2.5743936,-0.239679 2.5743936,-2.5790432 v -3.241503 z"
     id="path1006"
     inkscape:connector-curvature="0" />
  <path
     style="color:#000000;display:inline;overflow:visible;visibility:visible;opacity:0.1;fill:#ffffff;fill-opacity:1;fill-rule:nonzero;stroke:none;stroke-width:0.26457033;marker:none;enable-background:accumulate"
     d="M 6.3500703,0.39685664 V 12.03795 h 2.1878721 c 2.3346166,0 2.5743936,-0.239679 2.5743936,-2.5790432 V 6.2174038 3.0425597 L 8.4666328,0.39685664 Z"
     id="path1013"
     inkscape:connector-curvature="0"
     sodipodi:nodetypes="ccsscccc" />
  <path
     style="color:#000000;font-style:normal;font-variant:normal;font-weight:normal;font-stretch:normal;font-size:medium;line-height:normal;font-family:sans-serif;font-variant-ligatures:normal;font-variant-position:normal;font-variant-caps:normal;font-variant-numeric:normal;font-variant-alternates:normal;font-feature-settings:normal;text-indent:0;text-align:start;text-decoration:none;text-decoration-line:none;text-decoration-style:solid;text-decoration-color:#000000;letter-spacing:normal;word-spacing:normal;text-transform:none;writing-mode:lr-tb;direction:ltr;text-orientation:mixed;dominant-baseline:auto;baseline-shift:baseline;text-anchor:start;white-space:normal;shape-padding:0;clip-rule:nonzero;display:inline;overflow:visible;visibility:visible;opacity:0.4;isolation:auto;mix-blend-mode:normal;color-interpolation:sRGB;color-interpolation-filters:linearRGB;solid-color:#000000;solid-opacity:1;vector-effect:none;fill:url(#linearGradient1004);fill-opacity:1;fill-rule:nonzero;stroke:none;stroke-width:0.52914065;stroke-linecap:butt;stroke-linejoin:miter;stroke-miterlimit:4;stroke-dasharray:none;stroke-dashoffset:0;stroke-opacity:1;marker:none;color-rendering:auto;image-rendering:auto;shape-rendering:auto;text-rendering:auto;enable-background:accumulate"
     clip-path="none"
     d="m 4.1621981,0.39685664 c -2.334616,0 -2.5858361,0.2397052 -2.5743934,2.57904386 v 3.2415033 3.241503 C 1.5763487,11.798244 1.8275821,12.03795 4.1621981,12.03795 h 4.3757443 c 2.3346166,0 2.5743936,-0.239679 2.5743936,-2.5790432 V 6.2174038 3.0425597 h -0.26457 v 3.1748441 3.241503 c 0,0.5803222 -0.01624,1.0240712 -0.07028,1.3461032 -0.05402,0.322035 -0.13987,0.509123 -0.264054,0.633524 -0.124184,0.124388 -0.310702,0.2105 -0.631972,0.264571 -0.321273,0.05406 -0.7643965,0.07028 -1.3435224,0.07028 H 4.1621981 c -0.5791259,0 -1.0227997,-0.01619 -1.3450728,-0.07028 C 2.4948548,11.649003 2.30683,11.563015 2.1820534,11.438534 2.0572794,11.314046 1.971466,11.127183 1.9180016,10.805529 1.8645346,10.483875 1.8495335,10.040018 1.852375,9.4599398 v -5.29e-4 -3.242007 -3.2420201 -5.291e-4 c -0.00283,-0.5800778 0.01217,-1.0239334 0.065627,-1.3455882 0.053467,-0.3216548 0.1392778,-0.5085248 0.2640518,-0.63300506 0.124774,-0.1244803 0.31332,-0.2104736 0.6355904,-0.2645703 0.3222705,-0.0540718 0.7654284,-0.0702641 1.3445543,-0.0702641 h 4.3044347 v -0.2645703 z"
     id="path990"
     inkscape:connector-curvature="0" />
  <path
     inkscape:connector-curvature="0"
     style="color:#000000;display:inline;overflow:visible;visibility:visible;opacity:0.2;fill:#000000;fill-opacity:1;fill-rule:nonzero;stroke:none;stroke-width:0.06614863;marker:none;enable-background:accumulate"
     d="M 11.112336,3.3071301 V 3.0425597 L 8.4666328,0.39685664 H 8.2020625 v 1.11359066 0.042668 0.022917 c 0,1.5059289 0.201592,1.7381397 1.7109762,1.7307589 z"
     id="rect4158-0-3-62-2"
     sodipodi:nodetypes="ccccccscc" />
  <path
     inkscape:connector-curvature="0"
     style="color:#000000;display:inline;overflow:visible;visibility:visible;fill:#faf8f6;fill-opacity:1;fill-rule:nonzero;stroke:none;stroke-width:0.06614863;marker:none;enable-background:accumulate"
     d="M 11.112336,3.0422211 8.4666328,0.39685614 V 1.378132 1.4208 1.443717 c 0,1.5059289 0.069402,1.6058846 1.5787862,1.5985039 z"
     id="rect4158-0-3-62"
     sodipodi:nodetypes="ccccscc" />
</svg>
